X:1
T:Magnificat octavi toni - Palestrina
T:James Gibb editions
T:#
%%score [ 1 2 3 4 ]
L:1/8
Q:1/4=130
M:none
K:Bb
V:1 treble nm="Soprano" snm="S"
V:2 treble nm="Alto" snm="A"
V:3 treble-8 nm="Tenor" snm="T"
V:4 bass nm="Bass" snm="B"
V:1
 x14 ||"^Magnificat octavi toni""^G. P. da Palestrina\n(1526-94)"[Q:1/4=200] z16 | z16 | B8 B4 B4 | %4
w: |||A- ni- ma|
 A4 B4 G4 G4 |[Q:1/4=200][Q:1/4=200][Q:1/4=200][Q:1/4=200] F4 B4 B4 B4 | c4 (d8 c2 B2 | %7
w: me- a Do- mi-|num, a- ni- ma|me- a * *|
 A4 B8 A2 G2 | F4) (G6 F2 F4- | F4 =E2 D2 E4) E4 | !fermata!F16 || %11
w: |* Do\- * *|* * * * mi-|num.|
[Q:1/4=130][Q:1/4=130][Q:1/4=130][Q:1/4=130] z18 | z18 || %13
w: ||
[Q:1/4=200][Q:1/4=200][Q:1/4=200][Q:1/4=200] F8 G4 F4 | B8 A4 B4 | B4 c4 (d2 c2 B2 A2 | %16
w: Qui- a re-|spe- xit hu-|mi- li- ta\- * * *|
 G2 A2 B8 A4) | (B4 A2 G2 F8) | z16 | z16 | z8 F8 | G4 F4 (B8- | B4 A2 G2 A2 B2 c4- | %23
w: |tem * * *|||an-|cil- lae su\-||
 c2 B2 B8 A4) | B8 z4 B4- | B4 B4 B8 | B8 z4 G4 | B4 B4 c8 | (B6 c2 d4) (e4- | e2 d2) (d8 c4) | %30
w: |ae: ec\-|* ce e-|nim ex|hoc be- a-|tam * * me|* * di\- *|
 d8 z8 | z16 | z4 B8 B4 | B8 B8 | A4 B4 G8 | F4 d8 d4 | B8 d8 | c4 B4 B8 | !fermata!A16 || %39
w: cent||o- mnes|ge- ne-|ra- ti- o-|nes, o- mnes|ge- ne-|ra- ti- o-|nes.|
[Q:1/4=130][Q:1/4=130][Q:1/4=130][Q:1/4=130] z20 | z14 || %41
w: ||
[Q:1/4=200][Q:1/4=200][Q:1/4=200][Q:1/4=200] c12 c4 | c4 c4 B6 B2 | A4 (F2 G2 A2 B2 c4- | %44
w: Et mi-|se- ri- cor- di-|a e\- * * * *|
 c2 B2 A4) G4 (B4- | B2 A2 d8 c2 B2 | A4 B8 A2 G2 | A16 | G8 z4 d4- | d4 A4 c4 B4 | c4 c4 d4 (f4- | %51
w: * * * ius, e\-||||ius, et|* mi- se- ri-|cor- di- a e\-|
 f2 e2 d4 c4 B4- | B4 A4) B8 | F8 G4 B4- | B4 A4 B8 | z16 | z4 c4 d4 f4- | f2 e2 d2 c2 B6 A2 | %58
w: |* * ius|a pro- ge\-|* ni- e||in pro- ge\-||
 G4) G4 F8 | z8 z4 F4 | G4 G4 (A6 B2 | c4) (d6 c2 c4- | c4 B4) (c2 B2 A2 G2 | %63
w: * ni- es|ti-|men- ti- bus *|* e\- * *|* * um, * * *|
 F4) (B2 A2 G2 F2 G4- | G2 F2 F8 =E4) | !fermata!F16 || %66
w: * e\- * * * *||um.|
[Q:1/4=130][Q:1/4=130][Q:1/4=130][Q:1/4=130] z18 | z18 || %68
w: ||
[Q:1/4=200][Q:1/4=200][Q:1/4=200][Q:1/4=200] F8 B6 B2 | B4 c4 d8 | c4 B4 c8 | (B6 c2 d4 c4- | %72
w: De- po- su-|it po- ten-|tes de se-|de, * * *|
 c2 B2 A2 G2 F8 | G8) z4 F4 | B6 B2 B4 c4 | d8 c4 B4 | c8 B4 (d4- | d4 c2 B2 A4) B4 | c4 d4 e8 | %79
w: |* de-|po- su- it po-|ten- tes de|se- de, po\-|* * * * ten-|tes de se-|
 d16 | z4 B4 B4 B4 | A4 B4 G4 G4 | F8 z4 c4 | c4 c4 B4 c4 | (A6 B2 c2 d2 c4- | c2 B2 A2 G2 F8 | %86
w: de,|et ex- al-|ta- vit hu- mi-|les, et|ex- al- ta- vit|hu\- * * * *||
 G6 G2 F8- | F8 z8 | z8 B8 | B4 B4 A4 B4 | G12 G4 | !fermata!F16 || %92
w: * mi- les,||et|ex- al- ta- vit|hu- mi-|les.|
[Q:1/4=130][Q:1/4=130][Q:1/4=130][Q:1/4=130] x16 x2 | x16 x2 ||[Q:1/4=200] F8 G4 F4 | G4 B4 A8 | %96
w: ||Su- sce- pit|Is- ra- el,|
 z16 |[Q:1/4=200][Q:1/4=200][Q:1/4=200][Q:1/4=200] z16 | z4 B4 c4 B4 | c4 e4 d4 d4- | %100
w: ||su- sce- pit|Is- ra- el pu\-|
 d2 d2 c4 B6 A2 | G2 A2 B6 A2 A4) | (B6 AG A8) | z4 B4 c8 | d8 c8 | z8 z4 B4 | B4 A4 B4 G4 | %107
w: * e- rum su\- *||um, * * *|re- cor-|da- tus|mi-|se- ri- cor- di-|
 (A2 G2 A2 B2 c2 B2 B4- | B4) (A4 B6 c2 | d4 c2 B2 A4 G4) | F8 z8 | z8 z4 B4 | c8 d8 | %113
w: ae * * * * * *|* su\- * *||ae,|re-|cor- da-|
 B4 B4 B4 A4 | (B6 c2 d8- | d8) c8 | d8 (c6 B2 | A2 G2 A4 B8) | !fermata!A16 ||[Q:1/4=130] x16 x2 | %120
w: tus mi- se- ri-|cor\- * *|* di-|ae su\- *||ae.||
 x16 x4 | z16 | z16 | z16 | z16 | z16 | z8 F8- | F8 G8 | F8 (B8- | B4 A2 G2 A2 B2 c4- | %130
w: ||||||Glo\-|* ri-|a Pa\-||
 c2 B2 B8 A4) | B4 (d8 c2 B2 | c8) d4 d4 | e8 d4 (G2 A2 | B2 c2 d8) (c4- | c2 B2 B8) A4 | %136
w: |tri, glo\- * *|* ri- a|Pa- tri, et *|* * * Fi\-|* * * li-|
 (B6 AG F8) | z8 z4 B4- | B2 B2 B4 A8 | B8 (G6 A2 | B4 c6 B2 B4- | B4 A2 G2) A8 | z4 c6 c2 c4 | %143
w: o, * * *|et|* Spi- ri- tu-|i San\- *||* * * cto,|et Spi- ri-|
 B8 c8 | (A6 G2 F2 G2 A2 F2 | G2 F2 F8 =E4) | !fermata!F16 || %147
w: tu- i|San\- * * * * *||cto.|
[Q:1/4=130][Q:1/4=130][Q:1/4=130][Q:1/4=130] z18 | z18 |] %149
w: ||
V:2
 x14 || z8 F8 | F4 F4 E4 F4 | (D6 C2 B,2 C2 D2 E2 | F4) B,4 C8 | (D6 E2 F2 D2 G4- | G2 F2 F8) =E4 | %7
w: |A-|ni- ma me- a|Do\- * * * * *|* mi- num,|a\- * * * *|* * * ni-|
 F4 F8 E4 | D12 B,4 | C16- | !fermata!C16 || z18 | z18 || z16 | B,8 C4 B,4 | E8 D4 E4 | E4 D4 C8 | %17
w: ma me- a|Do- mi-|num.|||||Qui- a re-|spe- xit hu-|mi- li- ta-|
 (B,4 C4 D8) | z16 | B,8 C4 B,4 | (E12 D2 C2 | D2 E2 F8 E4 | D4 C2 B,2 C8) | F16 | z4 F8 F4 | F16 | %26
w: tem * *||an- cil- lae|su\- * *|||ae:|ec- ce|e-|
 G4 G4 B4 B4 | G8 (C2 D2 E2 F2 | G4) G4 (B2 A2 G2 F2 | G2 F2 F2 ED E8) | D8 z8 | z16 | z4 F8 G4 | %33
w: nim ex hoc be-|a- tam * * *|* me di\- * * *||cent||o- mnes|
 F4 G4 D4 E4 | (F4 B,4) C8 | z4 F8 F4 | D6 E2 F4 (G4- | G2 F2) (F8 =E4) | !fermata!F16 || z20 | %40
w: ge- ne- ra- ti-|o\- * nes,|o- mnes|ge- ne- ra- ti\-|* * o\- *|nes.||
 z14 || z16 | z16 | F12 F4 | F4 F4 E6 E2 | D4 (B,2 C2 D2 E2 F4- | F2 E2 D4 C8) | F16 | z8 F8- | %49
w: |||Et mi-|se- ri- cor- di-|a e\- * * * *||ius,|et|
 F4 F4 F4 F4 | E6 E2 D4 (B,2 C2 | D2 E2 F6 E2 D4 | C8) B,8 | z4 F4 E4 D4- | D4 C4 B,4 F4 | %55
w: * mi- se- ri-|cor- di- a e\- *||* ius,|a pro- ge\-|* ni- e in|
 G4 (B6 A2 G2 F2 | E4) E4 (D6 E2 | F4) G6 F2 F4- | F4 =E4 F4 D4 | D8 C4 D4 | B,8 C4 F4 | F8 E4 F4 | %62
w: pro- ge\- * * *|* ni- es, *|* in pro- ge\-|* ni- es ti-|men- ti- bus|e- um, ti-|men- ti- bus|
 D8 C4 C4 | D4 D4 (E6 D2 | C4 D4) C8 | !fermata!A,16 || z18 | z18 || z16 | z8 B,8 | E6 E2 E4 F4 | %71
w: e- um, ti-|men- ti- bus *|* * e-|um.||||De-|po- su- it po-|
 G8 F4 E4 | (F6 E2 D2 B,2 F4- | F4 =E4) F8 | z4 F4 G4 G4 | B4 (A2 G2) (A2 GA B4- | B4 A4) G4 F4 | %77
w: ten- tes de|se\- * * * *|* * de,|de- po- su-|it po\- * ten\- * * *|* * tes de|
 (G8 F6 G2 | A4 B8 A4) | B8 z4 F4 | F4 F4 E4 D4 | F4 B,4 C8 | z4 F4 F4 F4 | E4 F4 (D4 E4 | %84
w: se\- * *||de, et|ex- al- ta- vit|hu- mi- les,|et ex- al-|ta- vit hu\- *|
 F6 G2 A2 B2 A4 | G4 A6 G2 F4- | F4 =E4 F8 | z4 F4 F4 F4 | E4 F4 (D2 E2 F2 D2 | E2 F2 G6 F2 F4- | %90
w: ||* mi- les,|et ex- al-|ta- vit hu\- * * *||
 F4 =E2 D2 E4) E4 | !fermata!F16 || x16 x2 | x16 x2 || z4 B,4 E4 D4 | E4 D4 C8 | z4 F4 G4 F4 | %97
w: * * * * mi-|les.|||Su- sce- pit|Is- ra- el,|su- sce- pit|
 G4 B4 A8 | z4 G6 G2 F4 | E6 DC F8) | F4 G6 G2 F4 | (B2 A2 G6 F2 F4- | F4 =E4) F8- | F16 | z8 E8 | %105
w: Is- ra- el|pu- e- rum|su\- * * *|um, pu- e- rum|su\- * * * *|* * um,||re-|
 F8 G8 | F4 F4 F4 =E4 | F4 D4 _E8 | C8 (B,2 C2 D2 E2 | F8 z8 | z8 B,8 | C8 D8 | C8 z4 F4 | %113
w: cor- da-|tus mi- se- ri-|cor- di- ae|su- ae, * * *||re-|cor- da-|tus mi-|
 F4 =E4 F6 F2 | F16 | z4 F4 F4 F4 | F8 =E8 | F8 D8 | !fermata!C16 || x16 x2 | x16 x4 | C16 | %122
w: se- ri- cor- di-|ae,|mi- se- ri-|cor- di-|ae su-|ae.|||Glo-|
 D8 C8 | F12 E4 | D4 C4 D8- | D4 C2 B,2 C6 D2 | E2 D2 D2 CB, C4) (D4- | D2 C2 B,2 A,2 G,8) | %128
w: ri- a|Pa\- *|||* * * * * * tri,||
 z8 B,8 | D4 C4 (F6 E2 | D4 C2 B,2 C8) | (D6 E2 F8) | z8 F8 | E4 C4 D4 E4 | (D6 E2 F8) | %135
w: Glo-|ri- a Pa\- *||tri, * *|glo-|ri- a Pa- tri,|et * *|
 G4 E4 (F6 E2 | D8) z8 | z4 F6 F2 F4 | =E8 F8 | D8 C4 C4 | B,4 A,4 B,4 B,4 | F,8 F8 | z8 z4 F4- | %143
w: Fi- li- o, *||et Spi- ri-|tu- i|San- cto, et|Spi- ri- tu- i|San- cto,|et|
 F2 F2 F4 =E8 | F16 | (D8 C8) | !fermata!C16 || z18 | z18 |] %149
w: * Spi- ri- tu-|i|San\- *|cto.|||
V:3
 F2 G2 F2 F2 B2 B4 || B8 B4 B4 | A4 B4 G4 (F4 | G2 A2 B2 c2 d2 c2 B2 c2 | d2 e2 f8) =e4 | %5
w: Ma- gni\- * fi\- * cat|A- ni- ma|me- a Do\- *||* * * mi-|
 (f6 _e2 d8) | z4 B4 B4 B4 | c4 (d8 c2 B2 | A4) (B6 A2 G2 F2 | G8) G8 | !fermata!A16 || %11
w: num, * *|a- ni- ma|me- a * *|* Do\- * * *|* mi-|num.|
 F2 G2 B8 c2 B4 | B8 A2 B2 G2 F4 || z16 | z16 | z16 | z8 F8 | G4 F4 B8 | A4 B4 B4 c4 | %19
w: ~Et ex- ultavit~spiritus me- us|in~Deo~salu- ta- ri me- o.||||Qui-|a re- spe-|xit hu- mi- li-|
 (d2 c2 B2 A2 G2 A2 B4- | B4 A4) B8 | z4 c4 d4 B4 | (f12 e4 | d8 c8) | d8 z4 d4- | d4 d4 d8 | %26
w: ta\- * * * * * *|* * tem|an- cil- lae|su\- *||ae: ec\-|* ce e-|
 e16- | e8 z8 | z8 G8 | B4 B4 c8 | (B6 c2 d4) (e4- | e2 d2) (d8 c4) | d4 d8 e4 | d4 e4 f4 (g4- | %34
w: nim||ex|hoc be- a-|tam * * me|* * di\- *|cent o- mnes|ge- ne- ra- ti\-|
 g2 f2) (f8 =e4) | f8 z4 f4- | f4 f4 d4 B4 | c4 d4 B8 | c16 || F2 G2 B8 c2 B2 B4 | %40
w: * * o\- *|nes, o\-|* mnes ge- ne-|ra- ti- o-|nes.|~Qui- a fecit~mihi~magna~qui po- tens est:|
 B4 A2 B2 G2 F4 || z16 | z16 | z16 | z16 | z16 | z16 | c12 c4 | c4 c4 B4 B4 | A4 (F2 G2 A2 GA B4- | %50
w: et~sanctum no- men e- ius.|||||||Et mi-|se- ri- cor- di-|a e\- * * * * *|
 B4 A4) B4 (d4- | d2 c2 B4 A4 B4) | F4 f4 e4 d4- | d4 c4 B8 | z4 f4 e4 (d4- | %55
w: * * ius, e\-||ius a pro- ge\-|* ni- e|in pro- ge\-|
 d2 c2 B2 A2 G2 A2 B4- | B4) A4 B8- | B8 z4 B4 | c4 c4 (d6 e2 | f4 (g6 f2 f4- | f4 =e4) f4 F4 | %61
w: |* ni- es|* ti-|men- ti- bus *|* e\- * *|* * um, ti-|
 A4 B4 c8 | z16 | z4 B4 B8 | A4 B4 G8 | !fermata!F16 || F2 G2 B8 c2 B4 | B8 A2 B2 G2 F4 || z16 | %69
w: men- ti- bus,||ti- men-|ti- bus e-|um.|Fe- cit potentiam~in~brachio su- o,|dispersit~superbos~mente cor- dis su- i.||
 z16 | z16 | z16 | F8 B6 B2 | B4 c4 d8 | B4 B4 e6 dc | B2 c2 d2 e2 f4 g4) | f4 F4 B6 B2 | %77
w: |||De- po- su-|it po- ten-|tes de se\- * *||de, de- po- su-|
 B4 c4 d8 | c4 B4 c8 | B4 B4 B4 B4 | A4 B4 G4 G4 | F4 f8 =e4 | f8 F8 | z16 | z4 f4 f4 f4 | %85
w: it po- ten-|tes de se-|de, et ex- al-|ta- vit hu- mi-|les, hu- mi-|les, *||et ex- al-|
 e4 f4 d4 d4 | c8 z4 B4 | B4 B4 A4 B4 | G4 A4 B4 B4 | E4 e4 f4 B4 | c12 c4 | !fermata!F16 || %92
w: ta- vit hu- mi-|les, et|ex- al- ta- vit|hu- mi- les, et|ex- al- ta- vit|hu- mi-|les.|
 F2 G2 B8 c2 B4 | B8 A2 B2 G2 F4 || z16 | z8 z4 c4 | d4 c4 d4 f4 | e4 d6 d2 c4 | (B6 A2 G4 B4- | %99
w: E- su- rientes~implevit bo- nis:|et~divites~dimi- sit i- na- nes.||Su-|sce- pit Is- ra-|el, pu- e- rum|su\- * * *|
 B4 A4) (B6 c2 | d4) e6 e2 d4 | e8 c8 | z4 B4 c8 | d8 c4 f4 | f4 B4 (c4 e4- | e2 dc) d4 e8 | %106
w: * * um, *|* pu- e- rum|su- um,|re- cor-|da- tus mi-|se- ri- cor\- *|* * * di- ae|
 (d6 c2 B4 c4) | F8 z8 | z8 z4 B4 | B4 A4 (c6 B2 | A4) B4 G4 (B4- | B4 A4) B8 | z4 f8 d4 | %113
w: su\- * * *|ae,|mi-|se- ri- cor\- *|* di- ae su\-|* * ae,|re- cor-|
 (d4 c2 B2 c8) | d4 B4 B4 B4 | B8 A8 | B8 G8 | F16- | !fermata!F16 || F2 G2 B8 c2 B4 | %120
w: da\- * * *|tus mi- se- ri-|cor- di-|ae su-|ae.||Si- cut locutus~est~ad~patres no- stros,|
 B8 A2 B2 G2 F2 F4 | z16 | z8 F8- | F8 G8 | F8 (B8- | B4 A2 G2 A2 B2 c4- | c2 B2 B8 A4 | %127
w: Abraham~et~semini~e- ius in sæ- cu- la.||Glo\-|* ri-|a Pa\-|||
 d12 c2 B2 | c4 f8 =e4) | f8 F8 | G8 F8 | (B12 A2 G2 | A2 B2 c6 B2 B4- | B4 A4) B8 | %134
w: ||tri, glo-|ri- a|Pa\- * *||* * tri,|
 z4 (B2 c2 d2 e2 f4) | (e2 d2 c2 B2 c4) c4 | B4 d6 d2 d4 | c8 d8 | B8 c4 f4- | f2 f2 f4 =e8 | %140
w: et * * * *|Fi\- * * * * li-|o, et Spi- ri-|tu- i|San- cto, et|* Spi- ri- tu-|
 f8 (d8 | c6 B2 c2 d2 c4- | c2 BA G4 A8 | F8) G4 c4- | c2 c2 c4 A8 | B8 G8 | A16 || %147
w: i San\-|||* cto, et|* Spi- ri- tu-|i San-|cto.|
 F2 G2 B8 c2 B4 | B8 A2 B2 G2 F4 |] %149
w: Si- cut erat~in~principio,~et~nunc,~et sem- per,|et~in~saecula~saecu- lo- rum. A- men.|
V:4
 x14 || z16 | z16 | z16 | z16 | B,8 B,4 B,4 | A,4 B,4 G,4 G,4 | (F,2 E,2 D,2 C,2 B,,4) C,4 | %8
w: |||||A- ni- ma|me- a Do- mi-|num, * * * * a-|
 D,4 B,,4 D,4 D,4 | C,8 C,8 | !fermata!F,16 || z18 | z18 || z16 | z16 | z16 | z16 | z8 B,,8 | %18
w: ni- ma me- a|Do- mi-|num.|||||||Qui-|
 C,4 B,,4 E,8 | D,4 E,4 E,4 D,4 | C,8 B,,4 B,4 | B,4 A,4 G,8 | F,12 C,4 | D,4 B,,4 F,8 | %24
w: a re- spe-|xit hu- mi- li-|ta- tem an-|cil- lae su-|ae, an-|cil- lae su-|
 B,,8 B,8- | B,4 B,4 B,8 | E,16- | E,8 z8 | z16 | z16 | z4 (G,4 B,2 A,2 G,2 F,2 | %31
w: ae: ec\-|* ce e-|nim||||me di\- * * *|
 G,2 F,2 F,2 E,D, E,8) | B,,8 z8 | z16 | z16 | B,12 B,4 | B,8 B,8 | A,4 B,4 G,8 | !fermata!F,16 || %39
w: |cent|||o- mnes|ge- ne-|ra- ti- o-|nes.|
 z20 | z14 || z16 | z16 | z16 | z16 | z16 | z8 F,8- | F,4 F,4 F,4 F,4 | E,6 E,2 D,4 (B,,2 C,2 | %49
w: |||||||Et|* mi- se- ri-|cor- di- a e\- *|
 D,2 E,2 F,6 E,2 D,4 | C,8) B,,8- | B,,8 z8 | z4 F,4 G,4 B,4- | B,4 A,4 G,8 | z4 F,4 G,4 (B,4- | %55
w: |* ius,||a pro- ge\-|* ni- e|in pro- ge\-|
 B,2 A,2 G,2 F,2 E,6 D,2 | C,4) C,4 B,,8 | z16 | z8 z4 B,4 | B,8 A,4 B,4 | G,8 F,8 | z8 z4 F,4 | %62
w: |* ni- es||ti-|men- ti- bus|e- um,|ti-|
 G,4 G,4 A,8 | (B,2 A,2 G,2 F,2 E,2 D,2 E,4 | F,4 B,,4 C,8) | !fermata!F,16 || z18 | z18 || z16 | %69
w: men- ti- bus|e\- * * * * * *||um.||||
 z16 | z16 | z16 | z16 | z16 | z16 | z16 | z16 | z16 | z16 | z16 | z16 | z16 | z16 | z16 | z16 | %85
w: ||||||||||||||||
 z16 | z16 | z16 | z16 | z16 | z16 | z16 || x16 x2 | x16 x2 || z16 | z8 F,8 | B,4 A,4 B,4 A,4 | %97
w: ||||||||||Su-|sce- pit Is- ra-|
 G,8 F,6 F,2 | D,4 (E,8 D,4 | C,8) B,,8 | z16 | E,8 F,8 | G,8 F,8 | z4 B,4 B,4 A,4 | B,4 G,4 _A,8 | %105
w: el, pu- e-|rum su\- *|* um,||re- cor-|da- tus|mi- se- ri-|cor- di- ae|
 F,8 E,8 | z16 | z8 E,8 | F,8 G,8 | F,4 F,4 F,4 =E,4 | F,4 D,4 E,8 | C,8 B,,4 B,4 | B,4 A,4 B,8 | %113
w: su- ae||re-|cor- da-|tus mi- se- ri-|cor- di- ae|su- ae, mi-|se- ri- cor-|
 G,8 F,8 | B,,8 B,,4 B,,4 | B,,8 F,8 | (B,,8 C,8) | (D,8 B,,8) | !fermata!F,16 || x16 x2 | x16 x4 | %121
w: di- ae,|mi- se- ri-|cor- di-|ae *|su\- *|ae.|||
 z16 | z16 | z16 | z16 | F,16 | G,8 F,8 | (B,12 A,2 G,2 | A,4 B,4 G,8) | F,8 z8 | z16 | %131
w: ||||Glo-|ri- a|Pa\- * *||tri,||
 z4 (B,,2 C,2 D,2 E,2 F,4- | F,4) E,4 D,8 | C,8 B,,4 (E,2 F,2 | G,2 A,2 B,8 A,4) | G,4 G,4 F,8 | %136
w: glo\- * * * *|* ri- a|Pa- tri, et *||Fi- li- o,|
 z4 B,6 B,2 B,4 | A,8 B,8 | (G,8 F,8 | B,,8) C,8 | z16 | z4 F,6 F,2 F,4 | =E,8 F,8 | D,8 C,8 | %144
w: et Spi- ri-|tu- i|San\- *|* cto,||et Spi- ri-|tu- i|San- cto,|
 F,8 F,4 F,4 | B,,4 B,,4 C,8 | F,16 || z18 | z18 |] %149
w: et Spi- ri-|tu- i San-|cto.|||

